X:7154
T:Home On The Range
S:Comando list, 7/97, Peter Freitag
M:3/4
Q:126
K:D
|:A,2 A,2 D2| E2 F4| DC B,2 G2| G2 G4|\
[1 F2 G2 A2| DD D2 C2| D2 E4:|[2 G2 G2 F2| ED C2 D2| E2 D4|
